assets/White question mark/Flat/white_question_mark_flat.svg

<svg width="32" height="32" viewBox="0 0 32 32" fill="none" xmlns="http://www.w3.org/2000/svg">
<path d="M13.0372 20.8626C13.0372 22.1648 14.1823 23.2221 15.5924 23.2221C17.0025 23.2221 18.1475 22.1648 18.1475 20.8528V19.1506C18.1475 19.0395 18.2212 18.9421 18.3271 18.9086C21.6766 17.8508 24 14.9188 24 11.5616V10.3084C24 6.0691 20.3104 2.53471 15.7726 2.4466C13.4931 2.39764 11.3409 3.19068 9.70813 4.65926C8.08598 6.12784 7.18478 8.10553 7.18478 10.2105C7.18478 11.5224 8.34043 12.5798 9.75054 12.5798C11.1606 12.5798 12.3057 11.5224 12.3057 10.2203C12.3057 9.39788 12.6556 8.62443 13.2917 8.04679C13.9278 7.46915 14.7654 7.15585 15.6666 7.17543C17.4478 7.21459 18.8897 8.62443 18.8897 10.3182V11.5616C18.8897 13.0302 17.7659 14.2932 16.2073 14.5575C14.3731 14.8708 13.0372 16.3492 13.0372 18.0723V20.8626Z" fill="#9B9B9B"/>
<path d="M15.5 30C16.8807 30 18 28.8807 18 27.5C18 26.1193 16.8807 25 15.5 25C14.1193 25 13 26.1193 13 27.5C13 28.8807 14.1193 30 15.5 30Z" fill="#9B9B9B"/>
</svg>

<svg xmlns="http://www.w3.org/2000/svg" width="32" height="32" fill="none"><path fill="#9B9B9B" d="M13.037 20.863c0 1.302 1.145 2.36 2.555 2.36 1.41 0 2.556-1.058 2.556-2.37V19.15c0-.111.073-.209.18-.242C21.676 17.85 24 14.919 24 11.562v-1.254c0-4.239-3.69-7.773-8.227-7.861-2.28-.05-4.432.744-6.065 2.212-1.622 1.469-2.523 3.447-2.523 5.551 0 1.312 1.155 2.37 2.566 2.37 1.41 0 2.555-1.058 2.555-2.36 0-.822.35-1.596.986-2.173a3.394 3.394 0 0 1 2.375-.872c1.78.04 3.223 1.45 3.223 3.143v1.244c0 1.468-1.124 2.731-2.683 2.995-1.834.314-3.17 1.792-3.17 3.515v2.79ZM15.5 30a2.5 2.5 0 1 0 0-5 2.5 2.5 0 0 0 0 5Z"/></svg>
